static/assets/images/networks/canto.svg

<svg width="256" height="256" viewBox="0 0 256 256" fill="none" xmlns="http://www.w3.org/2000/svg">
<path d="M128 256C198.692 256 256 198.692 256 128C256 57.3075 198.692 0 128 0C57.3075 0 0 57.3075 0 128C0 198.692 57.3075 256 128 256Z" fill="#06FC99"/>
<path fill-rule="evenodd" clip-rule="evenodd" d="M193.536 49.664V206.336L75.392 206.335V178.687H48.128V77.312H75.392V49.664H193.536ZM98.1106 77.3133H166.27V104.961H98.1106V77.3133ZM166.27 155.649H98.1106V104.961L70.8466 104.963V155.65L98.1106 155.649V183.297H166.27V155.649Z" fill="black"/>
</svg>

<svg xmlns="http://www.w3.org/2000/svg" fill="none" viewBox="0 0 256 256"><path fill="#06FC99" d="M128 256c70.692 0 128-57.308 128-128S198.692 0 128 0 0 57.308 0 128s57.308 128 128 128"/><path fill="#000" fill-rule="evenodd" d="M193.536 49.664v156.672l-118.144-.001v-27.648H48.128V77.312h27.264V49.664zm-95.425 27.65h68.159v27.647H98.11zm68.159 78.335H98.11v-50.688l-27.263.002v50.687l27.264-.001v27.648h68.159z" clip-rule="evenodd"/></svg>
